coreui/free/cil-tablet.svg

<svg xmlns="http://www.w3.org/2000/svg" viewBox="0 0 512 512">
  <path fill="var(--ci-primary-color, currentColor)" d="M440,16H80A24.028,24.028,0,0,0,56,40V472a24.028,24.028,0,0,0,24,24H440a24.028,24.028,0,0,0,24-24V40A24.028,24.028,0,0,0,440,16Zm-8,448H88V368H432Zm0-128H88V48H432Z" class="ci-primary"/>
  <rect width="32" height="32" x="232" y="400" fill="var(--ci-primary-color, currentColor)" class="ci-primary"/>
</svg>

<svg viewBox="0 0 512 512" xmlns="http://www.w3.org/2000/svg"><g><path d="M440 16H80v0c-13.25.01-23.99 10.75-24 24v432 -.001c.01 13.24 10.75 23.98 24 24h360 -.001c13.24-.02 23.98-10.76 24-24v-432 0c-.02-13.25-10.76-23.99-24-24Zm-8 448H88v-96h344Zm0-128H88V48h344Z"/><path d="M232 400h32v32h-32Z"/></g></svg>
